svg/fluentui-system-icons/ic_fluent_question_circle_32_regular.svg

<svg width="32" height="32" viewBox="0 0 32 32" fill="none" xmlns="http://www.w3.org/2000/svg">
<path d="M17.5 22C17.5 22.8284 16.8284 23.5 16 23.5C15.1716 23.5 14.5 22.8284 14.5 22C14.5 21.1716 15.1716 20.5 16 20.5C16.8284 20.5 17.5 21.1716 17.5 22ZM14 12.0001C14 11.4632 14.1801 10.9589 14.4974 10.602C14.7984 10.2634 15.2714 10.0001 16 10.0001C17.3077 10.0001 18.3823 11.3476 18.0299 12.7576C17.8492 13.4803 17.4195 13.8927 16.7726 14.5138C16.7151 14.569 16.6557 14.626 16.5947 14.6849C15.8662 15.3889 15 16.3269 15 18C15 18.5523 15.4477 19 16 19C16.5523 19 17 18.5523 17 18C17 17.173 17.3533 16.7331 17.9845 16.1232C18.0448 16.0649 18.109 16.0043 18.176 15.941C18.79 15.3609 19.6417 14.5562 19.9701 13.2426C20.6177 10.6526 18.6923 8.00009 16 8.00009C14.7286 8.00009 13.7016 8.48679 13.0026 9.27323C12.3199 10.0413 12 11.037 12 12.0001C12 12.5524 12.4477 13.0001 13 13.0001C13.5523 13.0001 14 12.5524 14 12.0001ZM2 16C2 8.26801 8.26801 2 16 2C23.732 2 30 8.26801 30 16C30 23.732 23.732 30 16 30C8.26801 30 2 23.732 2 16ZM16 4C9.37258 4 4 9.37258 4 16C4 22.6274 9.37258 28 16 28C22.6274 28 28 22.6274 28 16C28 9.37258 22.6274 4 16 4Z" fill="#212121"/>
</svg>

<svg xmlns="http://www.w3.org/2000/svg" width="32" height="32"><path d="M17.5 22a1.5 1.5 0 1 1-3 0 1.5 1.5 0 0 1 3 0ZM14 12c0-.537.18-1.041.497-1.398.301-.339.774-.602 1.503-.602 1.308 0 2.382 1.348 2.03 2.758-.18.722-.61 1.135-1.257 1.756l-.178.17C15.866 15.39 15 16.328 15 18a1 1 0 1 0 2 0c0-.827.353-1.267.985-1.877l.191-.182c.614-.58 1.466-1.385 1.794-2.698C20.618 10.653 18.692 8 16 8c-1.271 0-2.298.487-2.997 1.273C12.32 10.041 12 11.037 12 12a1 1 0 1 0 2 0ZM2 16C2 8.268 8.268 2 16 2s14 6.268 14 14-6.268 14-14 14S2 23.732 2 16ZM16 4C9.373 4 4 9.373 4 16s5.373 12 12 12 12-5.373 12-12S22.627 4 16 4Z"/></svg>
